X: 38134
T: Sporting Days Of Easter, The
R: reel
M: 4/4
K: Dmixolydian
d2 cA GEEA|(3AAA GE (3AAA D2|d2 cA GE E2|(3AAA GE D4:|
c3 d eege|eaag egge|c3 d eege|abge d2 ed|
c3 d eege|eaag eg gf-|f2 ed cAGB|Add^c defe||

